X: 40593
T: Tomorrow Shall Be My Dancing Day
R: waltz
M: 3/4
K: Dmajor
D2|A2F2 AG|F2E2 GF|D2B,2D2|D4 BA|B2 d2 Bd|c2 F2 B2|A6|A4 Bc|
d2 B2 d2|c2 A4|B2 d2 B2|A4 F2|G2 A2 B2|A2 D4|B,2 D2 GF|E4 Bc||
d4 Bd|c4 BA|B3d B2|A6|B2 c2 d2|A2 F2 ED|F2 E2 D2|E4 Bc|
d4 Bd|c4 BA|B3d B2|A6|B2 d2 B2|AF D2 E2|F2 A2 E2|D4||

